tools/download-figma-icons/icons/outlined-large/magnifier-and-euro.svg

<svg width="64" height="64" viewBox="0 0 64 64" fill="none" xmlns="http://www.w3.org/2000/svg">
<path fill-rule="evenodd" clip-rule="evenodd" d="M27.9578 3.00047C14.1959 3.00047 2.99998 14.1954 2.99998 27.9573C2.99998 41.7192 14.1959 52.9141 27.9578 52.9141C41.7187 52.9141 52.9146 41.7192 52.9146 27.9573C52.9146 14.1954 41.7187 3.00047 27.9578 3.00047ZM49.7296 45.4861L63.1215 58.878C64.2925 60.05 64.2925 61.949 63.1215 63.121C62.5355 63.707 61.7675 64 60.9995 64C60.2315 64 59.4635 63.707 58.8786 63.121L45.4867 49.7291C40.6917 53.5951 34.5967 55.9141 27.9578 55.9141C12.5169 55.9141 0 43.3972 0 27.9573C0 12.5174 12.5169 0.000488278 27.9578 0.000488278C43.3967 0.000488278 55.9146 12.5174 55.9146 27.9573C55.9146 34.5962 53.5956 40.6912 49.7296 45.4861ZM37.6232 17.8415C37.1602 18.5284 36.2272 18.7094 35.5402 18.2454C30.9103 15.1205 24.6793 15.7215 20.7263 19.6764C19.6104 20.7914 18.7714 22.0794 18.2014 23.4534H32.5613C33.3892 23.4534 34.0612 24.1254 34.0612 24.9534C34.0612 25.7814 33.3892 26.4534 32.5613 26.4534H17.4104C17.2914 27.3774 17.2774 28.3094 17.3784 29.2344H32.5613C33.3892 29.2344 34.0612 29.9064 34.0612 30.7344C34.0612 31.5623 33.3892 32.2343 32.5613 32.2343H18.1134C18.6834 33.6913 19.5504 35.0583 20.7263 36.2343C23.8553 39.3643 28.4183 40.4603 32.6313 39.0913C33.6142 38.7713 34.5932 38.2853 35.5402 37.6453C36.2272 37.1823 37.1582 37.3623 37.6232 38.0493C38.0862 38.7353 37.9052 39.6683 37.2192 40.1323C36.0402 40.9283 34.8082 41.5383 33.5572 41.9443C32.0513 42.4333 30.5083 42.6723 28.9823 42.6723C25.1483 42.6723 21.4163 41.1683 18.6044 38.3553C16.8674 36.6173 15.6184 34.5213 14.9264 32.2343H10.8504C10.0214 32.2343 9.35043 31.5623 9.35043 30.7344C9.35043 29.9064 10.0214 29.2344 10.8504 29.2344H14.3594C14.3224 28.8104 14.2964 28.3854 14.2964 27.9554C14.2964 27.4504 14.3244 26.9494 14.3734 26.4534H10.8504C10.0214 26.4534 9.35043 25.7814 9.35043 24.9534C9.35043 24.1254 10.0214 23.4534 10.8504 23.4534H15.0054C15.7094 21.2544 16.9244 19.2354 18.6044 17.5555C23.5733 12.5875 31.4003 11.8315 37.2192 15.7595C37.9052 16.2225 38.0862 17.1545 37.6232 17.8415Z" fill="black"/>
</svg>

<svg xmlns="http://www.w3.org/2000/svg" width="64" height="64" fill="none" viewBox="0 0 64 64"><path fill="currentColor" fill-rule="evenodd" d="M27.958 3C14.196 3 3 14.195 3 27.957s11.196 24.957 24.958 24.957c13.76 0 24.957-11.195 24.957-24.957S41.719 3 27.958 3M49.73 45.486l13.392 13.392A3.001 3.001 0 0 1 60.999 64a3 3 0 0 1-2.12-.879L45.487 49.729a27.83 27.83 0 0 1-17.53 6.185C12.518 55.914 0 43.397 0 27.957S12.517 0 27.958 0c15.439 0 27.957 12.517 27.957 27.957a27.83 27.83 0 0 1-6.185 17.53M37.623 17.842a1.5 1.5 0 0 1-2.083.403c-4.63-3.125-10.86-2.524-14.814 1.431a11.6 11.6 0 0 0-2.525 3.777h14.36a1.5 1.5 0 0 1 0 3h-15.15a11.8 11.8 0 0 0-.033 2.781h15.183a1.5 1.5 0 0 1 0 3H18.113a11.6 11.6 0 0 0 2.613 4 11.66 11.66 0 0 0 11.905 2.857c.983-.32 1.962-.806 2.91-1.446a1.5 1.5 0 0 1 1.678 2.487 14.7 14.7 0 0 1-3.662 1.812 14.8 14.8 0 0 1-4.575.728 14.65 14.65 0 0 1-10.378-4.317 14.64 14.64 0 0 1-3.678-6.12H10.85a1.5 1.5 0 1 1 0-3h3.51a15 15 0 0 1-.064-1.28q.002-.758.077-1.502H10.85a1.5 1.5 0 1 1 0-3h4.155a14.6 14.6 0 0 1 3.6-5.898c4.968-4.967 12.795-5.723 18.614-1.796a1.5 1.5 0 0 1 .404 2.082" clip-rule="evenodd"/></svg>
